X: 224
T: Yearlings in the Canebrake
B: canberra pickers and fiddlers
B: tunes
M:4/4
L:1/8
R: reel
Q: 1/4=220
K:Am
V:1 
|:"Am"A2A2[A,2E2][A,E][B,E]|[C2E2] [CE][CE] [A,2E2][A,E][B,E]|[C2E2][CE][CE] [CF]EDC |"E7"[G,2D2][G,D]E [G,2D2] D(^F|
"Am"[A2A2]) [AA]A [A,2E2][A,E][A,E]|[C2E2]  [B,E][CE] [A,2E2][A,E][B,E]|[C2E2][C2E2][CE][CE] [CF]EDC |1"E7"[G,D]D[G,D]E [G,2D2] D^F:|2"E7"[G,D]D[G,D]E [G,2D2][G,2D2]||
"A"[ce]-[e2e2][ee] [e2e2][B2e2]|[Be][ce][de][de] [d2f2]  [Ae]B | "D"de[df]g [d2f2] ed|
"D"[ce]-[e2e2][ee] [e2e2] [B2e2]|"A"[Be][ce][de][de] [d2f2]  c2A2| "D"fefg afed|"E7"[ce][Ae][Be][ce] "A"[A2e2]||
% abcbook-tune_id 63ae8f1ca04a29bf6813f97b
% abcbook-tune_composer_id 
% abcbook-link-0 https://www.youtube.com/watch?v=Bq7dbwUbSMc
% abcbook-link-start-at-0 92
% abcbook-link-end-at-0 220
% abcbook-link-1 https://www.youtube.com/watch?v=vt3nAHeMpmI
% abcbook-boost 0
% abcbook-difficulty 0
% abcbook-tags canberra pickers and fiddlers,old time tunes,© free
% abcbook-tablature 
% abcbook-transpose 
% abcbook-tuning GDAE
% abcbook-lastupdated 1677376117262
% abcbook-src-url https://tunebook.net/scrape/tunes.abc
% abcbook-soundfonts 
% abcbook-repeats 1


